!!!OTL: Beluxt a beduxt (194), S. 423
!!!id: T0374
**kern
*clefG2
*k[f#]
*G:
{8d
=1
8g
8f#
8g
8a
=2
4b
8g}
=3
{8b
=4
8a
8g
8f#
8a
=5
4g}
8r
=6
{8d
=7
8g
8f#
8g
8a
=8
4b
8g}
=9
{8b
=10
8a
8g
8f#
8a
=11
4g}
8r
==
*-
!!!minrhy: 8
!!!meters: 2/4 ]  ZZ[4
!!!cut: Beluxt a beduxt (194), S. 423
!!!reg: Luxemburg
!!!trd: Singendes Volk, Esch-Alzette, 1937 posth.
!!!rhy1: X  XXXX  X_X
!!!rhy2: X  XXXX  X_0
!!!key: T0374  08  G 2/4 ]  ZZ[4
!!!mod: PENTATONIK ]  AMBITUS[6
!!!kad: 1111
!!!akz: 13_21_13_21_
!!!fot: 'a__b__a__b__
!!!for: 'a__a__a__a__
!!!fok: '^a_\__^a_\__
!! PHRAS[AUFTAKTIG]
!!!fkt: Hochzeits-, Ehestandslied
!!!bem: Junglinster und andere Orte
!! THILL; Mathias
!! PR[47] 2K[4] 2G[4] 3K[4] 3G[7] 4A[4] 4Ü[0] 5A[0] 6K[0] 6G[0]
!! 7K[0] 7G[0] 8A[2] MEHR[0] SI[27] ABS[45] SR[9] SP[18]
!! ST[16] 2k[2] 2g[2] 3k[9] 3g[9] 4d[4] 4ü[0] 5d[0] 6k[0] 6g[0]
!! 7k[0] 7g[0] 8d[0] mehr[0] si[27] dm[0] sr[4] sp[22]
!! 1F[61] 2F[39] 3F[0] 4F[0] LF[0] 2P[0] 3P[0] 4P[0] TRI[0] DF[2] AB[46]
!! TF[0] U3K[0] U3[0] U4[0] U4Ü[0] U5[2] U6K[0] U6[0] U7K[0] U7[0]
!! N1[26] N2K[0] N2[24] N3K[0] N3[24] N4[9] N4Ü[0] N5[11] N6K[0] N6[0]
!!!n7k: 0] N7[0] O1[4] O2K[0] O2[0] O3K[0] O3[0] HÖ[0
